img/facebook.svg

<svg width="22" height="23" viewBox="0 0 22 23" fill="none" xmlns="http://www.w3.org/2000/svg">
<path d="M22 11.5404C22 5.44301 17.0751 0.5 11 0.5C4.92492 0.5 0 5.44301 0 11.5404C0 16.7179 3.55168 21.0625 8.34284 22.2558V14.9144H6.07464V11.5404H8.34284V10.0866C8.34284 6.32889 10.0373 4.58716 13.713 4.58716C14.41 4.58716 15.6125 4.7245 16.1044 4.8614V7.91959C15.8448 7.89221 15.3938 7.87852 14.8337 7.87852C13.0302 7.87852 12.3332 8.56435 12.3332 10.3472V11.5404H15.9262L15.3089 14.9144H12.3332V22.5C17.7791 21.8398 22 17.1851 22 11.5404Z" fill="#0966FF"/>
</svg>

<svg width="22" height="23" fill="none" xmlns="http://www.w3.org/2000/svg"><path d="M22 11.54C22 5.443 17.075.5 11 .5S0 5.443 0 11.54c0 5.178 3.552 9.523 8.343 10.716v-7.342H6.075V11.54h2.268v-1.453c0-3.758 1.694-5.5 5.37-5.5.697 0 1.9.138 2.391.274V7.92c-.26-.028-.71-.041-1.27-.041-1.804 0-2.5.685-2.5 2.468v1.193h3.592l-.617 3.374h-2.976V22.5C17.78 21.84 22 17.185 22 11.54Z" fill="#0966FF"/></svg>
